X: 2
T: O Dear Mother Me Toes Are So Sore
M: 6/8
L: 1/8
R: jig
K: D Major  a bit more 
|: FA |
f2 e d2 B | A2 F D2 E | F3 FED | F2 A AB/c/d |
fge dcB | ABG FED | F/G/AF EFE | D3- D :|
|: ef |
g2 e f2 d | c2 e Ace | gfe fed |
[1 c2 B Ad/e/f | gfe ff/e/d | cde A2 a | gfe dcB |1 A3- A :|
[2 c2 B A2 a | gfe f2 d | cde a2 f | edc BA^G | A3- A |]
